!!!OTL: HEUTE SCHEID ICH, HEUTE WANDRE ICH, KEINE SEELE WEINT UM MICH
!!!ARE: Europa, Mitteleuropa, Deutschland, Schwaben
!!!SCT: Z0188
!!!YEM: Copyright 1995, estate of Helmut Schaffrath.
**kern
*ICvox
*Ivox
*M3/4
*k[]
*C:
{8.G
16G
=1
4c
4e
8d
8c
=2
8.B
16c
4d}
{8c
8d
=3
8e
8f
4g
8f
8e
=4
4d
4r}
{8g
8g
=5
8g
8f
4d
8e
8d
=6
8.c
16d
4e}
{8g
8g
=7
8g
8f
4d
8e
8d
=8
8.c
16d
4e
4r}
=9
{2g
4f
=10
8e
8e
4e
4d
=11
2c}
==
!!!AGN: Soldaten - Lied
!!!ONB: ESAC (Essen Associative Code) Database: ZUCCAL
!!!AMT: simple triple
!!!AIN: vox
!!!EED: Helmut Schaffrath
!!!EEV: 1.0
*-
